Yaru++/actions/16/media-view-subtitles.svg

<svg height="16" width="16" xmlns="http://www.w3.org/2000/svg">
  <path d="m3.5 2a2.495 2.495 0 0 0 -2.5 2.5v5c0 1.385 1.115 2.52 2.5 2.5h6.375l3.125 3v-3.063a2.486 2.486 0 0 0 2-2.437v-5c0-1.385-1.115-2.5-2.5-2.5zm-.5 5h4v1h-4zm5 0h5v1h-5zm-5 2h2v1h-2zm3 0h5v1h-5zm6 0h1v1h-1z" fill="#808080"/>
</svg>

<?xml version="1.0" encoding="UTF-8" standalone="no"?>
<svg
   xmlns:dc="http://purl.org/dc/elements/1.1/"
   xmlns:cc="http://creativecommons.org/ns#"
   xmlns:rdf="http://www.w3.org/1999/02/22-rdf-syntax-ns#"
   xmlns:svg="http://www.w3.org/2000/svg"
   xmlns="http://www.w3.org/2000/svg"
   xmlns:sodipodi="http://sodipodi.sourceforge.net/DTD/sodipodi-0.dtd"
   xmlns:inkscape="http://www.inkscape.org/namespaces/inkscape"
   width="16"
   height="16"
   version="1.1"
   id="svg4"
   sodipodi:docname="media-view-subtitles-symbolic.svg"
   inkscape:version="0.92.4 (5da689c313, 2019-01-14)">
  <metadata
     id="metadata10">
    <rdf:RDF>
      <cc:Work
         rdf:about="">
        <dc:format>image/svg+xml</dc:format>
        <dc:type
           rdf:resource="http://purl.org/dc/dcmitype/StillImage" />
      </cc:Work>
    </rdf:RDF>
  </metadata>
  <defs
     id="defs8" />
  <sodipodi:namedview
     pagecolor="#ffffff"
     bordercolor="#666666"
     borderopacity="1"
     objecttolerance="10"
     gridtolerance="10"
     guidetolerance="10"
     inkscape:pageopacity="0"
     inkscape:pageshadow="2"
     inkscape:window-width="793"
     inkscape:window-height="480"
     id="namedview6"
     showgrid="false"
     inkscape:zoom="14.75"
     inkscape:cx="8"
     inkscape:cy="8"
     inkscape:window-x="0"
     inkscape:window-y="27"
     inkscape:window-maximized="0"
     inkscape:current-layer="svg4" />
  <path
     d="M3.5 2A2.495 2.495 0 0 0 1 4.5v5c0 1.385 1.115 2.52 2.5 2.5h6.375L13 15v-3.063A2.486 2.486 0 0 0 15 9.5v-5C15 3.115 13.885 2 12.5 2zM3 7h4v1H3zm5 0h5v1H8zM3 9h2v1H3zm3 0h5v1H6zm6 0h1v1h-1z"
     fill="#2e3436"
     id="path2"
     style="fill:#808080;fill-opacity:1" />
</svg>
